X:1
T:Ite caldi sospir
T:Severin Cornet
T:Source : La fleur des chansons à 3---Louvain---P.Phalèse---1574. Editor : André Vierendeels (31/08/18) Notes : Original clefs : G2, C2, C3 Original note values have been halved Editorial accidentals above the staff
T:Ite caldi sospir
T:©
T:©
T:©
T:©
T:©
C:Severin Cornet
Z:©
%%score [ 1 2 3 ]
L:1/8
Q:1/4=95
M:2/2
K:F
V:1 treble nm="Soprano" snm="S"
V:2 treble nm="Alto" snm="A"
V:3 treble-8 nm="Tenor" snm="T"
V:1
 z8 | z2 G3 ABc | dB _e2 d2 z d- | dd c2 d4- | d4 z2 _e2 | d3 e f2 c2 | B3 A/G/ A4 | G4 d3 c | %8
w: |I- * * *|* * * te cal-|* di so- spir|_ al|fred- * * do|co- * * *|re, i- *|
 BGcd e4 | d2 d2 d2 cB | c2 c2 d4 | B4 G3 A | BG d4 c2 | B6 A2 | z2 f4 d2- | dc/d/ _e2 d4 | %16
w: |te cal- di _ _|_ so- spir|al fred- *|* * * do|co- re,|al fred-|* * * * do|
 c3 B AG A2 | G4 z2 d2 | ^ff g2 e2 f2 | f2 _e4 d2- | d2 c2 d3 c/B/ | cd B3 A/G/AB | ^c d2 c d4 | %23
w: co- * * * *|re, rom-|pe- te'il giac- cio che|_ pie- ta|_ con- ten- * *||* * * de,|
 z2 d3 c2 B- | BB A2 c2 G2 | B3 c de f2- | f2 c2 ABcd | ef g3 f/e/ f2 | g4 z4 | _e3 d/c/ Bc d2 | %30
w: e si pre-|* go mor- tal al|ciel _ _ _ _|_ s'in- ten- * * *||de,|mor- * * * * *|
 d2 B2 B3 A/G/ | F2 f3 e/d/cB | c2 d4 e2 | A2 d2 g2 c2 | d2 d2 _e3 d | cB c2 d4 | z2 B2 _e4- | %37
w: te'o mer- ce, _ _|_ mor- * * * *|* te'o mer-|ce, sia fi- ne'al|mio do- lo- *|* * * re,|al mio|
 e2 d4 c2- | cBBA/G/ A4 | =B8 |] %40
w: _ do- lo-||re.|
V:2
 z2 D3 EFG | AF B4 G2 | z GGA B2 B2- | BB G4 ^F2 | z2 B4 G2- | GF B3 A/G/ A2 | G2 G3 ^F/E/ F2 | %7
w: I- * * *|* * * te|cal- di so- spir, cal-|* di so- spir|al fred-||do co- * * *|
 G4 z2 DE | FEAB c2 G2 | B2 B4 AG | A2 A2 B4 | z2 B4 G2- | GF B2 A4 | G4 ^FEFG | A4 z2 B2- | %15
w: re, i- *|* * * * * te|cal- di _ _|_ so- spir|al fred-|* * * do|co- re, _ _ _|_ al|
 B2 G3 A B2 | A2 G3 ^F/E/ F2 | G3 ^F/E/ D2 z2 | A2 =BB c2 A2- | AG/F/GA B2 B2- | B2 G2 F2 G2 | %21
w: _ fred- * *|do co- * * *|re, _ _ _|rom- pe- te'il giac- cio|_ _ _ _ _ _ che|_ pie- ta con-|
 AB G3 F/E/FG | AF E2 G3 F/E/ | D4 z2 G2- | G2 F4 _E2- | E D2 G F2 D2 | FGAB c2 A2 | %27
w: ten- * * * * * *|* * * de, _ _|_ e|_ se pre-|* go mor- tal al|ciel _ _ _ _ s'in-|
 G3 A BA/G/ A2 | G8- | G4 z4 | BA/G/ F2 G2 G2 | D3 E FG A2- | A2 A2 B2 G2 | F3 E/D/ C2 G2 | %34
w: ten- * * * * *|de,|_|mor- * * * * te'o|mer- * * * ce|_ sia fi- ne'al|mio _ _ _ do-|
 B3 A GF G2 | A4 z2 F2 | BAGF G2 A2 | BA/G/FG AB A2- | AG G3 F/E/ F2 | G8 |] %40
w: lo- * * * *|re, al|mio _ _ _ _ do-|lo- * * * * * * *||re.|
V:3
 d3 c BGde | f2 _ed e4 | d_ecc g2 z g- | gg _e2 d4 | B4 G3 A |"^b" B2 G2 defc | _e4 d4 | %7
w: I- * * * * *||te cal- di so- spir, cal-|* di so- spir|al fred- *|* do co- * * *|* re,|
 z2 G3 ABG | de f2 c2 c2 | g2 g2 f4- | f4 z2 B2- | B2 G3 ABc | d3 e f2 f2 | g4 d4- | d4 B4 | %15
w: i- * * *|* * * te cal-|di so- spir,|_ al|_ fred- * * *|* * * do|co- re,|_ al|
 G3 A Bcde | f2 c2 d4 | G2 z d ^ff g2 | d2 z G A2 A2 | c4 G2 g2 | _e4 B2 B2 | fd _e2 d3 c/B/ | %22
w: fred- * * * * *|* do co-|re, rom- pe- te'il giac-|cio, rom- pe- te'il|giac- cio che|pie- ta con-|ten- * * * * *|
 A4 z2 g2- | g2 f4 _e2 | d3 c/B/ A2 c2 | G2 G2 B3 c | de f4 F2 | c4 d4 | z2 _e3 d/c/ B2 | %29
w: de, e|_ se pre-|go _ _ _ mor-|tal al ciel _|_ _ _ s'in-|ten- de,|mor- * * *|
 c2 c2 G2 g2- | gf/e/ d2 _e2 e2 | B3 c de f2- | f2 d2 g2 c2 |"^b" d2 B2 e4 | d4 z2 G2 | %35
w: te'o mer- ce, mor-|* * * * * te'o|mer- * * * ce|_ sia fi- ne'al|mio do- lo-|re, sia|
 c2 F2 f2 d2 | _e3 d cB c2 | B2 z B f2 f2 | g3 f/e/ d4 |"^#" G8 |] %40
w: fi- ne'al mio do-|lo- * * * *|re al mio do-|lo- * * *|re.|

